X:919
T:Paddy Fahy's Reel
T:Paddy Fahey's Reel
R:reel
C:Paddy Fahy?
H:Also in F, #720
Z:id:hn-reel-919
M:C|
K:G
gfea gedB | G2BG dG (3Bcd | gfea gedB | GA (3Bcd eA~A2 |
gfea gedB | G2BG dG (3Bcd | bagb a2ge | d2Bd eA~A2 :|
|: c2Ae cAFA | G2BG dG (3Bcd | c2Ae cAFA | GABd eA~A2 |
c2Ae cAFA | G2BG dG (3Bcd | bagb a2ge | d2 (3Bcd eA~A2 :|

